actions/22x22-dark/charcoaltool.svg

<svg viewBox="0 0 22 22" xmlns="http://www.w3.org/2000/svg" xmlns:xlink="http://www.w3.org/1999/xlink"><linearGradient id="a" gradientUnits="userSpaceOnUse" x1="8.686441" x2="12.661017" y1="9.228813" y2="13.144068"><stop offset="0" stop-color="#fff" stop-opacity=".458824"/><stop offset="1" stop-color="#fff" stop-opacity=".052941"/></linearGradient><path d="m15.40625 3-4 4-1.09375 1.09375-3.3125 3.28125v.03125l-.6875.6875-3.3125 3.28125v1.625l2 2h1.625l3.96875-4 1.125-1.125 3.28125-3.28125.71875-.71875 3.28125-3.28125v-1.59375l-2-2z" fill="#f2f2f2"/><path d="m15.40625 3-4 4-1.09375 1.09375-3.3125 3.28125v.03125l-.6875.6875-3.3125 3.28125v1.625l2 2h1.625l3.96875-4 1.125-1.125 3.28125-3.28125.71875-.71875 3.28125-3.28125v-1.59375l-2-2z" fill="url(#a)"/></svg>

<?xml version="1.0" encoding="UTF-8" standalone="no"?>
<svg
   xmlns:dc="http://purl.org/dc/elements/1.1/"
   xmlns:cc="http://creativecommons.org/ns#"
   xmlns:rdf="http://www.w3.org/1999/02/22-rdf-syntax-ns#"
   xmlns:svg="http://www.w3.org/2000/svg"
   xmlns="http://www.w3.org/2000/svg"
   xmlns:xlink="http://www.w3.org/1999/xlink"
   xmlns:sodipodi="http://sodipodi.sourceforge.net/DTD/sodipodi-0.dtd"
   xmlns:inkscape="http://www.inkscape.org/namespaces/inkscape"
   viewBox="0 0 22 22"
   id="svg2"
   version="1.1"
   inkscape:version="0.91 r13725"
   sodipodi:docname="charcoaltool.svg">
  <metadata
     id="metadata10">
    <rdf:RDF>
      <cc:Work
         rdf:about="">
        <dc:format>image/svg+xml</dc:format>
        <dc:type
           rdf:resource="http://purl.org/dc/dcmitype/StillImage" />
      </cc:Work>
    </rdf:RDF>
  </metadata>
  <sodipodi:namedview
     pagecolor="#ffffff"
     bordercolor="#666666"
     borderopacity="1"
     objecttolerance="10"
     gridtolerance="10"
     guidetolerance="10"
     inkscape:pageopacity="0"
     inkscape:pageshadow="2"
     inkscape:window-width="1360"
     inkscape:window-height="708"
     id="namedview8"
     showgrid="false"
     inkscape:zoom="21.454545"
     inkscape:cx="8.8201203"
     inkscape:cy="9.6895245"
     inkscape:window-x="0"
     inkscape:window-y="0"
     inkscape:window-maximized="1"
     inkscape:current-layer="svg2" />
  <defs
     id="defs3051">
    <linearGradient
       inkscape:collect="always"
       id="linearGradient4153">
      <stop
         style="stop-color:#ffffff;stop-opacity:0.45882353"
         offset="0"
         id="stop4155" />
      <stop
         style="stop-color:#ffffff;stop-opacity:0.05294118"
         offset="1"
         id="stop4157" />
    </linearGradient>
    <style
       type="text/css"
       id="current-color-scheme">
      .ColorScheme-Text {
        color:#f2f2f2;
      }
      </style>
    <linearGradient
       inkscape:collect="always"
       xlink:href="#linearGradient4153"
       id="linearGradient4159"
       x1="8.6864405"
       y1="9.2288132"
       x2="12.661017"
       y2="13.144068"
       gradientUnits="userSpaceOnUse" />
  </defs>
  <path
     style="fill:currentColor;fill-opacity:1;stroke:none"
     d="m 15.40625,3 -4,4 L 10.3125,8.09375 7,11.375 7,11.40625 6.3125,12.09375 3,15.375 3,17 l 2,2 1.625,0 3.96875,-4 1.125,-1.125 L 15,10.59375 15.71875,9.875 19,6.59375 19,5 17,3 15.40625,3 Z"
     class="ColorScheme-Text"
     id="path6" />
  <path
     inkscape:connector-curvature="0"
     style="color:#f2f2f2;fill:url(#linearGradient4159);fill-opacity:1;stroke:none"
     d="m 15.40625,3 -4,4 L 10.3125,8.09375 7,11.375 7,11.40625 6.3125,12.09375 3,15.375 3,17 l 2,2 1.625,0 3.96875,-4 1.125,-1.125 L 15,10.59375 15.71875,9.875 19,6.59375 19,5 17,3 15.40625,3 Z"
     id="path6-3" />
</svg>
